X: 42415
T: West End
R: mazurka
M: 3/4
K: Dminor
|:"A7"A>d|"Dm"f2f2a>f|"A7"e2e2 f>e|"Dm"d2d>e e>d|"A7"^c2A2A>d|
"Dm"f2f2a>f|"A7"e2e2 f>e|"Dm"d2d>f e>^c|1 "Dm"d4:|2 "Dm"d6||
|:"A7"a2a2 b>a|"Gm"g2e2 e>f|"Gm"g2a>g f>e|"Dm"f2d2 d>f|
"A7"a2a2 b>a|"Gm"g2e2 e>f|"Gm"g2 a>g f>e|"Dm"d4 d>f:|

